img/logo.svg

<svg width="114" height="35" viewBox="0 0 114 35" fill="none" xmlns="http://www.w3.org/2000/svg">
<path d="M0 34.5518L3.37435 8.69214H18.8446L18.1162 13.8641H7.84892L7.18121 18.9282H14.9044L14.0914 23.8459H6.50374L5.69077 29.4337H15.8529L15.2719 34.5518H0Z" fill="#FF6813"/>
<path d="M16.4916 34.5518L20.1337 8.69214H25.3367L21.6946 34.5518H16.4916Z" fill="#FF6813"/>
<path d="M40.9286 23.5356L39.385 34.5518H34.182L35.5348 24.9837C35.6157 24.4435 35.5522 23.9551 35.344 23.5183C35.1359 23.0701 34.8295 22.7196 34.4248 22.4667C34.0202 22.2024 33.5461 22.0702 33.0027 22.0702C32.4593 22.0702 31.9447 22.2024 31.4591 22.4667C30.9851 22.7196 30.5862 23.0701 30.2624 23.5183C29.9503 23.9551 29.7537 24.4435 29.6728 24.9837L28.32 34.5518H23.117L26.7417 8.69214H31.9447L30.592 18.3981C31.2394 17.9039 31.9505 17.5189 32.7252 17.2431C33.5114 16.9672 34.315 16.8293 35.1359 16.8293C36.3846 16.8293 37.4715 17.1339 38.3965 17.743C39.333 18.3407 40.0325 19.1452 40.495 20.1566C40.969 21.168 41.1136 22.2943 40.9286 23.5356Z" fill="#FF6813"/>
<path d="M47.3125 35C45.717 35 44.3179 34.592 43.1155 33.776C41.9245 32.96 41.0343 31.8624 40.4446 30.4832C39.8665 29.104 39.693 27.5812 39.9243 25.9147C40.0977 24.6619 40.4851 23.4896 41.0863 22.3977C41.6991 21.2944 42.4622 20.329 43.3756 19.5015C44.289 18.6625 45.3007 18.0074 46.4107 17.5361C47.5322 17.0649 48.6884 16.8293 49.8793 16.8293C51.2668 16.8293 52.4924 17.1339 53.5561 17.743C54.6199 18.3407 55.4755 19.1567 56.1229 20.1911C56.782 21.2139 57.1809 22.369 57.3196 23.6562C57.4699 24.9435 57.3196 26.2709 56.8687 27.6386H45.3007C45.4048 28.0409 45.5666 28.4087 45.7863 28.742C46.0176 29.0638 46.3182 29.3224 46.6882 29.5178C47.0582 29.7131 47.5091 29.8166 48.041 29.8281C48.5497 29.8396 49.0353 29.7304 49.4978 29.5005C49.9718 29.2707 50.3939 28.9603 50.7639 28.5696L55.8975 29.7936C54.9841 31.3222 53.7585 32.5749 52.2207 33.5519C50.6829 34.5173 49.0469 35 47.3125 35ZM45.6476 23.8459H52.1513C52.0588 23.3517 51.8738 22.9149 51.5963 22.5357C51.3304 22.1564 50.9951 21.8576 50.5904 21.6392C50.1973 21.4208 49.7522 21.3116 49.255 21.3116C48.7694 21.3116 48.2953 21.4208 47.8328 21.6392C47.3703 21.8576 46.9483 22.1564 46.5668 22.5357C46.1968 22.9149 45.8904 23.3517 45.6476 23.8459Z" fill="#FF6813"/>
<path d="M70.9274 17.312H76.1303L73.7023 34.5518H68.4819L68.4473 33.0002C67.927 33.5978 67.3142 34.0805 66.6089 34.4483C65.9151 34.8161 65.1347 35 64.2675 35C62.9726 35 61.7932 34.7586 60.7295 34.2759C59.6773 33.7932 58.7813 33.1266 58.0413 32.2761C57.3129 31.4141 56.7868 30.4257 56.463 29.3109C56.1393 28.1846 56.0699 26.9778 56.2549 25.6905C56.4283 24.4608 56.8157 23.3115 57.4169 22.2426C58.0297 21.1737 58.7928 20.237 59.7062 19.4325C60.6312 18.6165 61.6602 17.9786 62.7933 17.5189C63.938 17.0592 65.1231 16.8293 66.3487 16.8293C67.3431 16.8293 68.216 17.0362 68.9676 17.4499C69.7307 17.8522 70.3897 18.3579 70.9447 18.967L70.9274 17.312ZM64.8225 30.035C65.5394 30.035 66.2158 29.8511 66.8517 29.4833C67.4992 29.1155 68.0426 28.6213 68.4819 28.0007C68.9213 27.38 69.193 26.6904 69.2971 25.9319C69.4011 25.1733 69.3202 24.4838 69.0543 23.8631C68.7999 23.2425 68.401 22.7483 67.8576 22.3805C67.3257 22.0127 66.7014 21.8288 65.9845 21.8288C65.2676 21.8288 64.5913 22.0127 63.9553 22.3805C63.3194 22.7483 62.7876 23.2425 62.3598 23.8631C61.932 24.4838 61.666 25.1733 61.562 25.9319C61.4579 26.6904 61.5331 27.38 61.7874 28.0007C62.0418 28.6213 62.4349 29.1155 62.9668 29.4833C63.4986 29.8511 64.1172 30.035 64.8225 30.035Z" fill="#FF6813"/>
<path d="M85.6475 22.4839H82.6991L80.9995 34.5518H75.7965L77.4961 22.4839H75.2415L75.9699 17.312H78.2245L79.5353 8.69214H84.6578L83.4275 17.312H86.3759L85.6475 22.4839Z" fill="#FF6813"/>
<path d="M91.5258 35C89.9302 35 88.5312 34.592 87.3287 33.776C86.1378 32.96 85.2475 31.8624 84.6578 30.4832C84.0797 29.104 83.9063 27.5812 84.1375 25.9147C84.311 24.6619 84.6983 23.4896 85.2995 22.3977C85.9123 21.2944 86.6754 20.329 87.5889 19.5015C88.5023 18.6625 89.514 18.0074 90.6239 17.5361C91.7455 17.0649 92.9017 16.8293 94.0926 16.8293C95.4801 16.8293 96.7057 17.1339 97.7694 17.743C98.8331 18.3407 99.6887 19.1567 100.336 20.1911C100.995 21.2139 101.394 22.369 101.533 23.6562C101.683 24.9435 101.533 26.2709 101.082 27.6386H89.514C89.618 28.0409 89.7799 28.4087 89.9996 28.742C90.2308 29.0638 90.5314 29.3224 90.9014 29.5178C91.2714 29.7131 91.7223 29.8166 92.2542 29.8281C92.7629 29.8396 93.2486 29.7304 93.711 29.5005C94.1851 29.2707 94.6071 28.9603 94.9771 28.5696L100.111 29.7936C99.1973 31.3222 97.9717 32.5749 96.4339 33.5519C94.8962 34.5173 93.2601 35 91.5258 35ZM89.8608 23.8459H96.3646C96.2721 23.3517 96.0871 22.9149 95.8096 22.5357C95.5436 22.1564 95.2083 21.8576 94.8037 21.6392C94.4106 21.4208 93.9654 21.3116 93.4682 21.3116C92.9826 21.3116 92.5086 21.4208 92.0461 21.6392C91.5836 21.8576 91.1616 22.1564 90.78 22.5357C90.41 22.9149 90.1036 23.3517 89.8608 23.8459Z" fill="#FF6813"/>
<path d="M100.108 34.5518L102.519 17.312H107.722L107.583 18.3981C108.23 17.9039 108.942 17.5189 109.716 17.2431C110.502 16.9672 111.306 16.8293 112.127 16.8293C112.751 16.8293 113.376 16.9213 114 17.1051L111.208 22.346C110.838 22.1621 110.433 22.0702 109.994 22.0702C109.45 22.0702 108.936 22.2024 108.45 22.4667C107.976 22.7196 107.577 23.0701 107.253 23.5183C106.941 23.9551 106.745 24.4435 106.664 24.9837L105.311 34.5518H100.108Z" fill="#FF6813"/>
<path d="M46.6273 0C49.5746 4.43202 50.6552 8.10635 49.869 11.023C49.022 14.1651 47.0998 15.9728 44.8978 16.4261C45.2757 15.9889 45.5792 15.4127 45.7716 14.6988C46.1647 13.2405 45.6245 11.4034 44.1508 9.18734C41.76 10.374 40.368 11.6966 39.9749 13.1549C39.7824 13.8688 39.7554 14.5186 39.862 15.0848C38.1838 13.598 37.4285 11.0772 38.2754 7.93504C39.0616 5.01842 41.8456 2.37341 46.6273 0Z" fill="#FF6813"/>
</svg>

<svg width="114" height="35" fill="none" xmlns="http://www.w3.org/2000/svg"><path d="m0 34.552 3.374-25.86h15.47l-.728 5.172H7.85l-.668 5.064h7.723l-.813 4.918H6.504l-.813 5.588h10.162l-.581 5.118H0Zm16.492 0 3.642-25.86h5.203l-3.642 25.86h-5.203Zm24.437-11.016-1.544 11.016h-5.203l1.353-9.568c.08-.54.017-1.029-.191-1.466a2.403 2.403 0 0 0-.92-1.051c-.404-.265-.878-.397-1.421-.397-.544 0-1.058.132-1.544.397a3.487 3.487 0 0 0-1.197 1.051 3.334 3.334 0 0 0-.59 1.466l-1.352 9.568h-5.203l3.625-25.86h5.203l-1.353 9.706a7.81 7.81 0 0 1 2.133-1.155 7.23 7.23 0 0 1 2.41-.414c1.25 0 2.337.305 3.262.914a5.538 5.538 0 0 1 2.098 2.414c.474 1.011.619 2.137.434 3.379Z" fill="#FF6813"/><path d="M47.313 35c-1.596 0-2.995-.408-4.198-1.224-1.19-.816-2.08-1.914-2.67-3.293-.578-1.379-.752-2.902-.52-4.568a10.1 10.1 0 0 1 1.161-3.517 11.242 11.242 0 0 1 2.29-2.896 10.566 10.566 0 0 1 3.035-1.966 8.872 8.872 0 0 1 3.468-.707c1.388 0 2.613.305 3.677.914a7.064 7.064 0 0 1 2.567 2.448c.659 1.023 1.058 2.178 1.197 3.465.15 1.288 0 2.615-.451 3.983H45.3c.104.402.266.77.485 1.103.232.322.532.58.902.776.37.195.821.299 1.353.31.509.012.994-.098 1.457-.328a4.34 4.34 0 0 0 1.266-.93l5.133 1.224a11.23 11.23 0 0 1-3.676 3.758C50.683 34.517 49.047 35 47.313 35Zm-1.665-11.154h6.503a3.175 3.175 0 0 0-.555-1.31 2.888 2.888 0 0 0-1.006-.897 2.703 2.703 0 0 0-1.335-.327c-.486 0-.96.109-1.422.327a4.536 4.536 0 0 0-1.266.897c-.37.379-.677.816-.92 1.31Z" fill="#FF6813"/><path d="M70.927 17.312h5.203l-2.428 17.24h-5.22L68.447 33a6.244 6.244 0 0 1-1.838 1.448c-.694.368-1.474.552-2.341.552-1.295 0-2.475-.241-3.538-.724a7.862 7.862 0 0 1-2.689-2 7.991 7.991 0 0 1-1.578-2.965c-.324-1.126-.393-2.333-.208-3.62a9.747 9.747 0 0 1 1.162-3.448 11.022 11.022 0 0 1 2.29-2.81 10.738 10.738 0 0 1 3.086-1.914 9.456 9.456 0 0 1 3.556-.69c.994 0 1.867.207 2.619.62a7.174 7.174 0 0 1 1.977 1.518l-.018-1.655Zm-6.105 12.723a3.99 3.99 0 0 0 2.03-.552 5.01 5.01 0 0 0 1.63-1.482c.44-.621.711-1.31.815-2.07.104-.758.023-1.447-.243-2.068a3.226 3.226 0 0 0-1.196-1.482c-.532-.368-1.157-.552-1.874-.552a3.99 3.99 0 0 0-2.029.552 4.899 4.899 0 0 0-1.595 1.482 4.725 4.725 0 0 0-.798 2.069c-.104.758-.029 1.448.225 2.069.255.62.648 1.114 1.18 1.482.532.368 1.15.552 1.856.552Z" fill="#FF6813"/><path d="M85.647 22.484H82.7L81 34.552h-5.203l1.7-12.068h-2.254l.728-5.172h2.255l1.31-8.62h5.123l-1.23 8.62h2.948l-.729 5.172Z" fill="#FF6813"/><path d="M91.526 35c-1.596 0-2.995-.408-4.197-1.224-1.191-.816-2.081-1.914-2.671-3.293-.578-1.379-.752-2.902-.52-4.568.173-1.253.56-2.425 1.161-3.517a11.24 11.24 0 0 1 2.29-2.896 10.567 10.567 0 0 1 3.035-1.966 8.873 8.873 0 0 1 3.469-.707c1.387 0 2.613.305 3.676.914a7.063 7.063 0 0 1 2.567 2.448c.659 1.023 1.058 2.178 1.197 3.465.15 1.288 0 2.615-.451 3.983H89.514c.104.402.266.77.486 1.103.23.322.531.58.901.776.37.195.821.299 1.353.31.509.012.995-.098 1.457-.328.474-.23.896-.54 1.266-.93l5.134 1.224a11.234 11.234 0 0 1-3.677 3.758C94.896 34.517 93.26 35 91.526 35ZM89.86 23.846h6.504a3.175 3.175 0 0 0-.555-1.31 2.89 2.89 0 0 0-1.006-.897 2.703 2.703 0 0 0-1.336-.327c-.485 0-.96.109-1.422.327a4.538 4.538 0 0 0-1.266.897 5.08 5.08 0 0 0-.92 1.31Z" fill="#FF6813"/><path d="m100.108 34.552 2.411-17.24h5.203l-.139 1.086a7.814 7.814 0 0 1 2.133-1.155 7.231 7.231 0 0 1 2.411-.414c.624 0 1.249.092 1.873.276l-2.792 5.241a2.69 2.69 0 0 0-1.214-.276c-.544 0-1.058.132-1.544.397a3.49 3.49 0 0 0-1.197 1.051 3.335 3.335 0 0 0-.589 1.466l-1.353 9.568h-5.203ZM46.627 0c2.948 4.432 4.028 8.106 3.242 11.023-.847 3.142-2.77 4.95-4.971 5.403.378-.437.681-1.013.874-1.727.393-1.458-.148-3.296-1.621-5.512-2.391 1.187-3.783 2.51-4.176 3.968-.193.714-.22 1.364-.113 1.93-1.678-1.487-2.434-4.008-1.587-7.15.787-2.917 3.57-5.562 8.352-7.935Z" fill="#FF6813"/></svg>
